X: 218
T: The Duke's whim
%R: reel
B: "Twenty Four Country Dances for the Year 1793", Preston & Son, eds. p.89
F: http://www.vwml.org/browse/browse-collections-dance-tune-books/browse-prestons1793# 2014-8-7
Z: 2014 John Chambers <jc:trillian.mit.edu>
M: C|
L: 1/8
K: G
|:\
(GB)(dg) (bg)(af) | (ge)dg dBA2 |\
GBdg bgaf | ged>e | BGG2 :|
|:\
B>d .G.G B>d .G.G | c>e dB cA A2 |\
(GB)(dg) (bg)(af) | ged>e | BG G2 :|
% = = = = = = = = = = = = = = = = = = = = = = = = =
%%begintext align
%%   Change sides & back again .|
%% Right hands across half round
%%   left hands back again :|
%% Lead down the middle up again :|.
%% Allemand with your Part.r :|:
%%endtext
% = = = = = = = = = = = = = = = = = = = = = = = = =

%%sep 1 1 500
%%sep 1 1 500
